src/images/tech/git-icon.svg

<svg viewBox="0 0 105 105" fill="none" xmlns="http://www.w3.org/2000/svg">
<g clip-path="url(#clip0_14_41)">
<path d="M103.02 47.8219L57.1758 1.98038C54.5372 -0.6598 50.2552 -0.6598 47.6134 1.98038L38.0937 11.5001L50.1699 23.5763C52.9762 22.6281 56.1943 23.2642 58.4313 25.5012C60.6789 27.7525 61.3106 30.9981 60.3393 33.8134L71.9775 45.452C74.7932 44.482 78.0421 45.1095 80.291 47.3621C83.434 50.5039 83.434 55.596 80.291 58.7399C77.1471 61.8841 72.055 61.8841 68.9095 58.7399C66.5454 56.3733 65.9613 52.9013 67.1582 49.9888L56.3046 39.1352L56.3034 67.6973C57.0902 68.0863 57.8088 68.6002 58.4313 69.2189C61.5743 72.3607 61.5743 77.4532 58.4313 80.5995C55.2874 83.7422 50.1929 83.7422 47.0535 80.5995C43.9105 77.4532 43.9105 72.3611 47.0535 69.2193C47.8067 68.4658 48.7019 67.869 49.6871 67.4635V38.6352C48.7004 38.2324 47.8048 37.6353 47.0535 36.8793C44.6722 34.5013 44.0996 31.0071 45.3198 28.0831L33.4154 16.1775L1.98105 47.6099C-0.660352 50.2525 -0.660352 54.5349 1.98105 57.1755L47.8259 103.018C50.4652 105.658 54.7464 105.658 57.3891 103.018L103.019 57.3884C105.66 54.747 105.66 50.4621 103.019 47.8219" fill="#DE4C36"/>
</g>
<defs>
<clipPath id="clip0_14_41">
<rect width="105" height="105" fill="white"/>
</clipPath>
</defs>
</svg>

<svg viewBox="0 0 105 105" fill="none" xmlns="http://www.w3.org/2000/svg"><g clip-path="url(#a)"><path d="M103.02 47.822 57.176 1.98a6.762 6.762 0 0 0-9.563 0l-9.52 9.52L50.17 23.576a8.027 8.027 0 0 1 8.261 1.925 8.04 8.04 0 0 1 1.908 8.312l11.639 11.639c2.815-.97 6.064-.343 8.313 1.91a8.043 8.043 0 0 1 0 11.378 8.046 8.046 0 0 1-13.133-8.751L56.305 39.135l-.002 28.562a8.13 8.13 0 0 1 2.128 1.522 8.047 8.047 0 0 1 0 11.38c-3.144 3.143-8.238 3.143-11.377 0a8.046 8.046 0 0 1 2.633-13.136V38.635a7.948 7.948 0 0 1-2.633-1.756c-2.382-2.378-2.954-5.872-1.734-8.796L33.415 16.178 1.981 47.61a6.764 6.764 0 0 0 0 9.566l45.845 45.842a6.764 6.764 0 0 0 9.563 0l45.63-45.63a6.766 6.766 0 0 0 0-9.566" fill="#DE4C36"/></g><defs><clipPath id="a"><path fill="#fff" d="M0 0h105v105H0z"/></clipPath></defs></svg>
